!!!!SEGMENT: pl-kk--kk-i-625--001-004_lisinski-karol--vesperae-ex-a-laudate-pueri.krn
!!!cenid: 18xx:4603
!!!COM: Lisiński, Karol
!!!COM-rismID: pe50053612
!!!CDT:
!!!CNT: Polish
!!!OPR: Vesperae ex A
!!!OTL: Laudate pueri
!!!OMV: 004
!!!PDT:
!!!AGN: Sacred; Vespers
!!!YEC: Copyright 2022 Narodowy Instytut Fryderyka Chopina (https://polishscores.org)
!!!YEM: License CC-BY-4.0 (https://creativecommons.org/licenses/by/4.0)
!!!SMS-siglum: PL-Kk
!!!SMS-shelfmark: Kk.I.625
!!!SMS-variant: Violino Primo: Kk.I.625: 26-27 ; Violino Secundo: Kk.I.625: 36-37
!!!SMS-altvar: Violino Primo: Kk.I.625: 21-22 ;Violino Secundo: Kk.I.625: 31-32
!!!SMS-shelfwork: 001-004 M
!!!NIFC-rismSourceID: 1001210166
!!!NIFC-rismChildID: 1001210166
!!!NIFC-islandoraID: pl-kk:20012
!!!URL-pdf-islandora: https://repozytorium.nifc.pl/islandora/object/pl-kk:20012/datastream/PDF/view
!!!URL-scan: https://polish.musicsources.pl/pl/lokalizacje/galeria/rekopisy/7259/2 @EN{Scan on Polish Music Sources Website} @PL{Skany w portalu Dziedzictwo Muzyki Polskiej w otwartym dostępie}
!!!IIIF:
!!!ONB-nifc: UWAGA: Części Nieszporów: 1. Dixit Dominus, 2. Confitebor, 3. Beatus vir, 4. Laudate pueri, 5. In exitu, 6. Magnificat. Gloria wchodzi w ramy powyższych części. Uwaga: Partia Organo na skanach 44-46 i 2. Uwaga: Violino Primo i Secondo wg drugich odpisów spisanych ręką tą samą co reszta partii (s. 25-28 i 35-38). Proszę uzupełnić pola SMS:variant i SMS:altvar.
!!!AIN: 1 alto 1 bass 1 canto 2 clrno 1 organ 1 tenor 2 violn
!!!key:
**kern	**fba	**kern	**kern	**kern	**text	**kern	**text	**kern	**text	**kern	**text	**kern	**kern
*part9	*	*part8	*part7	*part6	*part6	*part5	*part5	*part4	*part4	*part3	*part3	*part2	*part1
*staff9	*	*staff8	*staff7	*staff6	*staff6	*staff5	*staff5	*staff4	*staff4	*staff3	*staff3	*staff2	*staff1
*I"Organo	*	*I"Violino Secundo	*I"Violino Primo	*I"Baſso	*	*I"Tenore	*	*I"Alto	*	*I"Canto	*	*I"Clarino Secundo ex A	*I"Clarino Primo ex A
*I'org	*	*I'vl 2	*I'vl 1	*I'B	*	*I'T	*	*I'A	*	*I'C	*	*I'cln 2 in A	*I'cln 1 in A
*Iorgan	*	*Ivioln	*Ivioln	*Ibass	*	*Itenor	*	*Ialto	*	*Icanto	*	*Iclrno	*Iclrno
*ICklav	*	*ICstr	*ICstr	*ICvox	*	*ICvox	*	*ICvox	*	*ICvox	*	*ICbras	*ICbras
*clefF4	*	*clefG2	*clefG2	*clefF4	*	*clefC4	*	*clefC3	*	*clefC1	*	*clefG2	*clefG2
*	*	*	*	*	*	*	*	*	*	*	*	*ITrd2c3	*ITrd2c3
*k[f#]	*	*k[f#]	*k[f#]	*k[f#]	*	*k[f#]	*	*k[f#]	*	*k[f#]	*	*k[f#]	*k[f#]
*G:	*	*G:	*G:	*G:	*	*G:	*	*G:	*	*G:	*	*G:	*G:
*M2/4	*	*M2/4	*M2/4	*M2/4	*	*M2/4	*	*M2/4	*	*M2/4	*	*M2/4	*M2/4
=1	=1	=1	=1	=1	=1	=1	=1	=1	=1	=1	=1	=1	=1
!LO:TX:b:t=Laudate pueri	!	!LO:TX:b:t=Laudate pueri	!	!	!	!	!	!	!	!	!	!	!LO:TX:a:t=Laudate Pueri Tacet
!LO:TX:a:t=Solo	!	!LO:TX:a:t=Poco Vivace	!	!LO:N:vis=00	!	!	!	!LO:N:vis=00	!	!LO:N:vis=00	!	!LO:TX:a:t=Laudate Pueri Tacet	!
4G\	.	4b/	4gg\	0r	.	4r	.	0r	.	0r	.	2ryy	2ryy
4D\	.	4a/	4ff#\	.	.	8r	.	.	.	.	.	.	.
.	.	.	.	.	.	8d\	Lau-	.	.	.	.	.	.
=2	=2	=2	=2	=2	=2	=2	=2	=2	=2	=2	=2	=2	=2
4G\	.	4b/	4gg\	.	.	8B\	-da-	.	.	.	.	2ryy	2ryy
.	.	.	.	.	.	8A\	-te	.	.	.	.	.	.
8r	.	8r	8r	.	.	8G/	pu-	.	.	.	.	.	.
8d\	.	8a/	8ff#\	.	.	16F#/	-e-	.	.	.	.	.	.
.	.	.	.	.	.	16F#/	-ri	.	.	.	.	.	.
=3	=3	=3	=3	=3	=3	=3	=3	=3	=3	=3	=3	=3	=3
8B\L	6	4b/	4gg\	.	.	8G/	Do-	.	.	.	.	2ryy	2ryy
8A\	.	.	.	.	.	16D/	-mi-	.	.	.	.	.	.
.	.	.	.	.	.	16D/	-num	.	.	.	.	.	.
8G\	.	8r	8r	.	.	8r	.	.	.	.	.	.	.
8F#\J	6	8a/	8dd\	.	.	8d\	lau-	.	.	.	.	.	.
=4	=4	=4	=4	=4	=4	=4	=4	=4	=4	=4	=4	=4	=4
8G\L	.	4g/	4ee\	.	.	8B\	-da-	.	.	.	.	2ryy	2ryy
8D\J	.	.	.	.	.	8A\	-te	.	.	.	.	.	.
8r	.	8r	8r	.	.	8G/	no-	.	.	.	.	.	.
8d\	.	8a/	8ff#\	.	.	8F#/	-men	.	.	.	.	.	.
!	!	!	!	!	!	!LO:LB:g=original	!	!	!	!	!	!	!
=5	=5	=5	=5	=5	=5	=5	=5	=5	=5	=5	=5	=5	=5
!	!	!	!	!LO:N:vis=00	!	!	!	!LO:N:vis=00	!	!LO:N:vis=00	!	!	!
8B\L	6	4b/	4gg\	0r	.	8G/	Do-	0r	.	0r	.	2ryy	2ryy
8A\	.	.	.	.	.	16D/	-mi-	.	.	.	.	.	.
.	.	.	.	.	.	16D/	-ni	.	.	.	.	.	.
8G\	.	8r	8r	.	.	8r	.	.	.	.	.	.	.
8D\J	.	8a/	8ff#\	.	.	8A\	sit	.	.	.	.	.	.
=6	=6	=6	=6	=6	=6	=6	=6	=6	=6	=6	=6	=6	=6
8G\L	.	4b/	8gg\L	.	.	8B\	no-	.	.	.	.	2ryy	2ryy
8A\	.	.	8ff#\	.	.	8c\	-men	.	.	.	.	.	.
8B\	.	8r	8gg\	.	.	8d\	Do-	.	.	.	.	.	.
8c\J	.	8ee\	8gg\J	.	.	16e\	-mi-	.	.	.	.	.	.
.	.	.	.	.	.	16e\	-ni	.	.	.	.	.	.
=7	=7	=7	=7	=7	=7	=7	=7	=7	=7	=7	=7	=7	=7
4d\	.	4a/	4ff#\	.	.	8F#/	be-	.	.	.	.	2ryy	2ryy
.	.	.	.	.	.	8G/	-ne-	.	.	.	.	.	.
8r	.	8r	8r	.	.	8A\	-dic-	.	.	.	.	.	.
8G\	.	8dd\	8ff#\	.	.	8B\	-tum	.	.	.	.	.	.
!	!	!LO:LB:g=original	!	!	!	!	!	!	!	!	!	!	!
=8	=8	=8	=8	=8	=8	=8	=8	=8	=8	=8	=8	=8	=8
4E\	6	4cc\	4gg\	.	.	8c\	ex	.	.	.	.	2ryy	2ryy
.	.	.	.	.	.	8e\	hoc	.	.	.	.	.	.
4F#\	65	8r	4aa\	.	.	8d\	nunc	.	.	.	.	.	.
.	.	8cc\	.	.	.	8c\	et	.	.	.	.	.	.
=9	=9	=9	=9	=9	=9	=9	=9	=9	=9	=9	=9	=9	=9
!LO:TX:t=P:problem:mixed beam	!	!	!	!LO:N:vis=00	!	!	!	!LO:N:vis=00	!	!LO:N:vis=00	!	!	!
8G\L	-	4b\	4dd\	0r	.	8B\	es-	0r	.	0r	.	2ryy	2ryy
8C\	.	.	.	.	.	16A/	-q(uae)	.	.	.	.	.	.
.	.	.	.	.	.	16G/	in	.	.	.	.	.	.
!	!	!	!	!	!	!LO:LB:g=original	!	!	!	!	!	!	!
8D\	.	4r	4r	.	.	8.F#/	sae-	.	.	.	.	.	.
8DD/J	.	.	.	.	.	.	.	.	.	.	.	.	.
.	.	.	.	.	.	16F#/	-cu-	.	.	.	.	.	.
!LO:LB:g=original	!	!	!LO:LB:g=original	!	!	!	!	!	!	!	!	!	!
=10	=10	=10	=10	=10	=10	=10	=10	=10	=10	=10	=10	=10	=10
!LO:TX:t=P:problem:mixed beam	!	!	!	!	!	!	!	!	!	!	!	!	!
8GG/L	.	8b/L	8g/L	.	.	4G/	-lum	.	.	.	.	2ryy	2ryy
16G\L	.	16G/L	16G/L	.	.	.	.	.	.	.	.	.	.
16A\JJ	.	16A/JJ	16A/JJ	.	.	.	.	.	.	.	.	.	.
8B\L	.	8B/L	8B/L	.	.	8r	.	.	.	.	.	.	.
8G\J	.	8G/J	8G/J	.	.	8d\	a	.	.	.	.	.	.
=11	=11	=11	=11	=11	=11	=11	=11	=11	=11	=11	=11	=11	=11
4c\	.	4c/	4c/	.	.	8e\	so-	.	.	.	.	2ryy	2ryy
.	.	.	.	.	.	8d\	-lis	.	.	.	.	.	.
*	*	*	*	*	*	*	*ij	*	*	*	*	*	*
8r	.	8r	8r	.	.	8e\	so-	.	.	.	.	.	.
8G\	.	8g/	8g/	.	.	8B\	-lis	.	.	.	.	.	.
*	*	*	*	*	*	*	*Xij	*	*	*	*	*	*
=12	=12	=12	=12	=12	=12	=12	=12	=12	=12	=12	=12	=12	=12
8A\L	-	8a/L	8a/L	.	.	4.c\	or-	.	.	.	.	2ryy	2ryy
8G\	.	8g/	8g/	.	.	.	.	.	.	.	.	.	.
8A\	.	8a/	8a/	.	.	.	.	.	.	.	.	.	.
8E\J	6	8e/J	8e/J	.	.	8c\	-tu	.	.	.	.	.	.
=13	=13	=13	=13	=13	=13	=13	=13	=13	=13	=13	=13	=13	=13
!	!	!	!	!LO:N:vis=00	!	!	!	!LO:N:vis=00	!	!LO:N:vis=00	!	!	!
4F#\	6	4f#/	4f#/	0r	.	8d\	us-	0r	.	0r	.	2ryy	2ryy
.	.	.	.	.	.	8c\	-que	.	.	.	.	.	.
8r	.	8r	8r	.	.	8d\	ad	.	.	.	.	.	.
8D\	.	8d/	8d/	.	.	8A\	oc-	.	.	.	.	.	.
=14	=14	=14	=14	=14	=14	=14	=14	=14	=14	=14	=14	=14	=14
8G\L	.	8g/L	8g/L	.	.	4B\	-ca-	.	.	.	.	2ryy	2ryy
8F#\	.	8f#/	8f#/	.	.	.	.	.	.	.	.	.	.
8G\	.	8g/	8g/	.	.	8B\	-sum	.	.	.	.	.	.
8D\J	.	8d/J	8d/J	.	.	8B\	lau-	.	.	.	.	.	.
=15	=15	=15	=15	=15	=15	=15	=15	=15	=15	=15	=15	=15	=15
4E\	.	4e/	4e/	.	.	8G/	-da-	.	.	.	.	2ryy	2ryy
.	.	.	.	.	.	16A\	-bi-	.	.	.	.	.	.
.	.	.	.	.	.	16B\	-le	.	.	.	.	.	.
8r	.	8r	8r	.	.	(16c\LL	no-	.	.	.	.	.	.
.	.	.	.	.	.	16B\JJ)	.	.	.	.	.	.	.
!	!	!	!	!	!	!LO:LB:g=original	!	!	!	!	!	!	!
8C/	.	8c/	8c/	.	.	(16A\LL	-men	.	.	.	.	.	.
.	.	.	.	.	.	16G\JJ)	.	.	.	.	.	.	.
!	!	!LO:LB:g=original	!	!	!	!	!	!	!	!	!	!	!
=16	=16	=16	=16	=16	=16	=16	=16	=16	=16	=16	=16	=16	=16
8D/L	.	8d/L	8c/L	.	.	8F#/L	Do-	.	.	.	.	2ryy	2ryy
16BB/L	.	16B/L	16B/L	.	.	16G/L	.	.	.	.	.	.	.
16C/JJ	.	16c/JJ	16c/JJ	.	.	16A/JJ	.	.	.	.	.	.	.
8D/L	6 4	8d/L	8d/L	.	.	8B\	.	.	.	.	.	.	.
8DD/J	3	8d/J	8d/J	.	.	16A\LL	-mi-	.	.	.	.	.	.
.	.	.	.	.	.	16G\JJ	.	.	.	.	.	.	.
=17	=17	=17	=17	=17	=17	=17	=17	=17	=17	=17	=17	=17	=17
!	!	!LO:TX:t=P:problem:mixed beam	!LO:TX:t=P:problem:mixed beam	!	!	!	!	!	!	!	!	!	!
4GG/	.	16G/LL	16G/LL	4r	.	4G/	-ni	4r	.	4r	.	2ryy	2ryy
.	.	16gg\	16gg\	.	.	.	.	.	.	.	.	.	.
.	.	16gg\	16gg\	.	.	.	.	.	.	.	.	.	.
.	.	16gg\JJ	16gg\JJ	.	.	.	.	.	.	.	.	.	.
!	!	!	!LO:LB:g=original	!	!	!	!	!	!	!	!	!	!
8r	.	16gg\LL	16gg\LL	8r	.	8r	.	8r	.	8r	.	.	.
.	.	16dd\	16dd\	.	.	.	.	.	.	.	.	.	.
8G\	.	16b\	16b\	8G\	Ex-	8B\	ex-	8g\	Ex-	8dd\	Ex-	.	.
.	.	16dd\JJ	16gg\JJ	.	.	.	.	.	.	.	.	.	.
!LO:LB:g=original	!	!	!	!	!	!	!	!	!	!	!	!	!
=18	=18	=18	=18	=18	=18	=18	=18	=18	=18	=18	=18	=18	=18
8c\L	.	16g/LL	16ee\LL	8c\	-cel-	8c\	-cel-	8g\	-cel-	8ee\	-cel-	2ryy	2ryy
.	.	16g/	16ee\	.	.	.	.	.	.	.	.	.	.
8c\	.	16g/	16ee\	8c\	-sus	8c\	-sus	8g\	-sus	8ee\	-sus	.	.
.	.	16g/JJ	16ee\JJ	.	.	.	.	.	.	.	.	.	.
8c\	.	16g/LL	16ee\LL	8c\	su-	8c\	su-	8g\	su-	8ee\	su-	.	.
.	.	16g/	16ee\	.	.	.	.	.	.	.	.	.	.
8G\J	.	16b/	16gg\	8G\	-per	8B\	-per	8g\	-per	8dd\	-per	.	.
.	.	16b/JJ	16gg\JJ	.	.	.	.	.	.	.	.	.	.
!	!	!	!	!	!	!	!	!LO:LB:g=original	!	!	!	!	!
=19	=19	=19	=19	=19	=19	=19	=19	=19	=19	=19	=19	=19	=19
8A\L	-	16cc\LL	16ee\LL	8A\	om-	8A\	om-	8e\	om-	8cc\	om-	2ryy	2ryy
.	.	16cc\	16ee\	.	.	.	.	.	.	.	.	.	.
8A\	3	16cc\	16ee\	8A\	-nes	8A\	-nes	8e\	-nes	8cc\	-nes	.	.
.	.	16cc\JJ	16ee\JJ	.	.	.	.	.	.	.	.	.	.
8A\	.	16cc\LL	16ee\LL	8A\	gen-	8A\	gen-	8e\	gen-	8cc\	gen-	.	.
.	.	16cc\	16ee\	.	.	.	.	.	.	.	.	.	.
8E\J	6	16cc\	16ee\	8E\	-tes	8c\	-tes	8g\	-tes	8cc\	-tes	.	.
.	.	16cc\JJ	16ee\JJ	.	.	.	.	.	.	.	.	.	.
=20	=20	=20	=20	=20	=20	=20	=20	=20	=20	=20	=20	=20	=20
!LO:TX:t=P:problem:mixed beam	!	!	!	!	!	!	!	!	!	!	!	!	!
*	*	*	*	*	*	*	*	*	*ij	*	*ij	*	*
8Fn\L	6 5	16cc\LL	16dd\LL	8Fn\L	Do-	8c\	Do-	8a\	gen-	8cc\	gen-	2ryy	2ryy
.	.	16cc\	16dd\	.	.	.	.	.	.	.	.	.	.
8D\	.	16cc\	16dd\	8D\	.	8c\	-mi-	8a\	-tes	8dd\	-tes	.	.
.	.	16cc\JJ	16dd\JJ	.	.	.	.	.	.	.	.	.	.
*	*	*	*	*	*	*	*	*	*Xij	*	*Xij	*	*
8G\	6 4	16cc\LL	8ee\L	8G\J	.	8c\	-ni	8g\	Do-	8ee\	Do-	.	.
.	.	16cc\	.	.	.	.	.	.	.	.	.	.	.
8GG/J	3	16b\	16dd\L	8GG/	-mi-	8B\	et	8g\	-mi-	16dd\LL	-mi-	.	.
.	.	16b\JJ	16cc\JJ	.	.	.	.	.	.	16cc\JJ	.	.	.
!	!	!LO:LB:g=original	!	!LO:LB:g=original	!	!LO:LB:g=original	!	!	!	!	!	!	!
=21	=21	=21	=21	=21	=21	=21	=21	=21	=21	=21	=21	=21	=21
!LO:TX:t=P:problem:mixed beam	!	!	!	!	!	!	!	!	!	!	!	!	!
8C/L	.	16cc\LL	16cc\LL	8C/	-nus	8c\	.	8g\	-nus	8cc\	-nus	2ryy	2ryy
.	.	16ee\	16cc\	.	.	.	.	.	.	.	.	.	.
8c\	-:	16ee\	16cc\	8c\	et	8e\	.	8g\	et	8cc\	et	.	.
.	.	16ee\JJ	16cc\JJ	.	.	.	.	.	.	.	.	.	.
!	!	!	!	!	!	!	!	!	!	!LO:LB:g=original	!	!	!
8A\	.	16ee\LL	16cc\LL	8A\	su-	8e\	su-	8a\	su-	8cc\	su-	.	.
.	.	16ee\	16cc\	.	.	.	.	.	.	.	.	.	.
8G\J	.	16ee\	16cc\	8G\	-per	8e\	-per	8a\	-per	8cc\	-per	.	.
.	.	16ee\JJ	16cc\JJ	.	.	.	.	.	.	.	.	.	.
=22	=22	=22	=22	=22	=22	=22	=22	=22	=22	=22	=22	=22	=22
8F#X\L	6:	16dd\LL	16aa\LL	(8F#X\L	coe-	4d\	coe-	8a\L	Coe-	4.dd\	Coe-	2ryy	2ryy
.	.	16dd\	16aa\	.	.	.	.	.	.	.	.	.	.
8E\	.	16dd\	16aa\	8E\J)	.	.	.	8g\J	.	.	.	.	.
.	.	16dd\JJ	16aa\JJ	.	.	.	.	.	.	.	.	.	.
!	!	!	!LO:LB:g=original	!	!	!	!	!	!	!	!	!	!
8F#\	.	16cc\LL	16aa\LL	(8F#\L	-los	4d\	-los	8a\L	-los	.	.	.	.
.	.	16cc\	16aa\	.	.	.	.	.	.	.	.	.	.
8D\J	.	16cc\	16aa\	8D\J)	.	.	.	8f#\J	.	8cc\	-los	.	.
.	.	16cc\JJ	16aa\JJ	.	.	.	.	.	.	.	.	.	.
=23	=23	=23	=23	=23	=23	=23	=23	=23	=23	=23	=23	=23	=23
!LO:TX:t=P:problem:mixed beam	!	!	!	!	!	!	!	!	!	!	!	!	!
8G\L	.	16b\LL	16gg\LL	8G\	glo-	8d\	glo-	8g\	glo-	8b\	glo-	2ryy	2ryy
.	.	16b\	16gg\	.	.	.	.	.	.	.	.	.	.
8C\	6	16cc\	16aa\	16C/	-ri-	16e\	-ri-	16g\	-ri-	16cc\	-ri-	.	.
.	.	16cc\JJ	16aa\JJ	16C/	-a	16e\	-a	16g\	-a	16cc\	-a	.	.
8D\	.	8.a\L	8.ff#\L	4D/	e-	4d\	e-	4f#\	e-	4a\	e-	.	.
8DD/J	.	.	.	.	.	.	.	.	.	.	.	.	.
.	.	16b\Jk	16ff#\Jk	.	.	.	.	.	.	.	.	.	.
=24	=24	=24	=24	=24	=24	=24	=24	=24	=24	=24	=24	=24	=24
!	!	!LO:TX:t=P:problem:mixed beam	!LO:TX:t=P:problem:mixed beam	!	!	!	!	!	!	!	!	!	!
4GG/	.	16b\LL	16gg\LL	4AA/	-jus	4d\	-jus	4g\	-jus	4b\	-jus	2ryy	2ryy
.	.	16B/	16g/	.	.	.	.	.	.	.	.	.	.
.	.	16B/	16g/	.	.	.	.	.	.	.	.	.	.
.	.	16B/JJ	16g/JJ	.	.	.	.	.	.	.	.	.	.
!	!	!LO:TX:t=P:problem:mixed beam	!LO:TX:t=P:problem:mixed beam	!	!	!	!	!LO:PB:g=original	!	!	!	!	!
8r	.	16B/LL	16g/LL	8r	.	8r	.	8r	.	8r	.	.	.
.	.	16gg\	16bb\	.	.	.	.	.	.	.	.	.	.
8G\	.	16gg\	16bb\	8G\	Quis	8B\	quis	8g\	quis	8dd\	quis	.	.
.	.	16gg\JJ	16bb\JJ	.	.	.	.	.	.	.	.	.	.
=25	=25	=25	=25	=25	=25	=25	=25	=25	=25	=25	=25	=25	=25
8F#\L	6	16dd\LL	16aa\LL	8F#\	si-	8d\	si-	8a\	si-	8dd\	si-	2ryy	2ryy
.	.	16dd\	16aa\	.	.	.	.	.	.	.	.	.	.
8E\	.	16dd\	16gg\	8E\	-cut	8d\	-cut	8g\	-cut	8dd\	-cut	.	.
.	.	16dd\JJ	16gg\JJ	.	.	.	.	.	.	.	.	.	.
8F#\	.	16dd\LL	16aa\LL	8F#\	Do-	8d\	Do-	8a\	Do-	8dd\	Do-	.	.
.	.	16dd\	16aa\	.	.	.	.	.	.	.	.	.	.
8D\J	.	16dd\	16ff#\	16D/	-mi-	16d\	-mi-	16f#\	-mi-	16dd\	-mi-	.	.
.	.	16dd\JJ	16ff#\JJ	16D/	-nus	16d\	-nus	16f#\	-nus	16dd\	-nus	.	.
!	!	!LO:LB:g=original	!	!	!	!	!	!	!	!	!	!	!
=26	=26	=26	=26	=26	=26	=26	=26	=26	=26	=26	=26	=26	=26
!LO:TX:t=P:problem:mixed beam	!	!	!	!	!	!	!	!	!	!	!	!	!
8E\L	7	16dd\LL	16gg\LL	8E\	De-	8B\	De-	8g\	De-	8dd\	De-	2ryy	2ryy
.	.	16dd\	16gg\	.	.	.	.	.	.	.	.	.	.
8G\	.	16dd\	16gg\	8G\	-us	8B\	-us	8g\	-us	8dd\	-us	.	.
.	.	16ee\JJ	16gg\JJ	.	.	.	.	.	.	.	.	.	.
!	!	!	!	!LO:LB:g=original	!	!	!	!	!	!	!	!	!
!	!	!	!	!LO:TX:t=P:problem:mixed beam	!	!	!	!	!	!	!	!	!
8A\	#	16cc#X\LL	16gg\LL	8A\L	nos-	4c#X\	nos-	4g\	nos-	4cc#X\	nos-	.	.
.	.	16cc#\	16gg\	.	.	.	.	.	.	.	.	.	.
8AA/J	7	16cc#\	16gg\	8AA/J	.	.	.	.	.	.	.	.	.
.	.	16cc#\JJ	16gg\JJ	.	.	.	.	.	.	.	.	.	.
!LO:LB:g=original	!	!	!	!	!	!LO:LB:g=original	!	!	!	!	!	!	!
=27	=27	=27	=27	=27	=27	=27	=27	=27	=27	=27	=27	=27	=27
8D\L	.	16dd\LL	16ff#\LL	8D/	-ter	8A/	.	8f#\	-ter	8dd\	-ter	2ryy	2ryy
.	.	16dd\	16ff#\	.	.	.	.	.	.	.	.	.	.
8E\	.	16dd\	16gg\	16E\	qui	16G/	-ter	16g\	qui	16dd\	qui	.	.
.	.	16dd\JJ	16gg\JJ	16E\	in	16G/	qui	16g\	in	16dd\	in	.	.
!	!	!	!	!	!	!	!	!	!	!LO:LB:g=original	!	!	!
8F#\	.	16dd\LL	16aa\LL	8F#\	al-	8F#/	in	8a\	al-	8dd\	al-	.	.
.	.	16dd\	16aa\	.	.	.	.	.	.	.	.	.	.
8D\J	.	16dd\	16ff#\	8D\	-tis	8A/	al-	8f#\	-tis	8dd\	-tis	.	.
.	.	16dd\JJ	16ff#\JJ	.	.	.	.	.	.	.	.	.	.
!	!	!	!LO:LB:g=original	!	!	!	!	!	!	!	!	!	!
=28	=28	=28	=28	=28	=28	=28	=28	=28	=28	=28	=28	=28	=28
8G\L	7	16b\LL	16bb\LL	8G\	ha-	8B\	-tis	8g\	ha-	8b\	ha-	2ryy	2ryy
.	.	16b\	16gg\	.	.	.	.	.	.	.	.	.	.
8A\	.	16cc#X\	16gg\	8A\	-bi-	8A\	ha-	8g\	-bi-	8ccn\	-bi-	.	.
.	.	16cc#\JJ	16gg\JJ	.	.	.	.	.	.	.	.	.	.
8B\	6	16dd\LL	16gg\LL	8B\	-tat	8G/	-bi-	8g\	-tat	8dd\	-tat	.	.
.	.	16dd\	16gg\	.	.	.	.	.	.	.	.	.	.
8G\J	.	16b\	16gg\	16G\	et	16B\	-tat	16g\	et	16b\	et	.	.
.	.	16b\JJ	16gg\JJ	16G\	hu-	16B\	et	16g\	hu-	16b\	hu-	.	.
=29	=29	=29	=29	=29	=29	=29	=29	=29	=29	=29	=29	=29	=29
8A\L	#	16cc#X\LL	16ff#\LL	8A\	-mi-	8A/	hu-	8e\	-mi-	8cc#X\	-mi-	2ryy	2ryy
.	.	16cc#\	16ff#\	.	.	.	.	.	.	.	.	.	.
8A\	6 4	16dd\	16gg\	16A\	-li-	16A/	-mi-	16f#\	-li-	16dd\	-li-	.	.
.	.	16dd\JJ	16gg\JJ	16A\	-a	16A/	-lia	16f#\	-a	16dd\	-a	.	.
!	!	!	!	!	!	!	!	!LO:LB:g=original	!	!	!	!	!
8A\	7 5	16ee\LL	16gg\LL	8A\	res-	8A/	res-	8g\	res-	8ee\	res-	.	.
.	.	16ee\	16gg\	.	.	.	.	.	.	.	.	.	.
8A\J	6 4	16dd\	16ff#\	8A\	-pi-	8A/	-pi-	8f#\	-pi-	8dd\	-pi-	.	.
.	.	16dd\JJ	16ff#\JJ	.	.	.	.	.	.	.	.	.	.
=30	=30	=30	=30	=30	=30	=30	=30	=30	=30	=30	=30	=30	=30
8A\L	#	16cc#X\LL	16ee\LL	8A\	-cit	8A\	-cit	8e\	-cit	8cc#X\	-cit	2ryy	2ryy
.	.	16cc#\	16ee\	.	.	.	.	.	.	.	.	.	.
8G\	4 2	16cc#\	16ee\	8G\	in	8A\	in	8e\	in	8cc#\	in	.	.
.	.	16cc#\JJ	16ee\JJ	.	.	.	.	.	.	.	.	.	.
8F#\	6	16dd\LL	16aa\LL	8F#\	coe-	8A\	coe-	8f#\	coe-	8dd\	Coe-	.	.
.	.	16dd\	16aa\	.	.	.	.	.	.	.	.	.	.
8E\J	6\	16cc#X\	16ff#\	8E\	-lo	8c#X\	-lo	8g\	-lo	8cc#\	-lo	.	.
.	.	16cc#\JJ	16ff#\JJ	.	.	.	.	.	.	.	.	.	.
!	!	!	!	!LO:PB:g=original	!	!	!	!	!	!	!	!	!
=31	=31	=31	=31	=31	=31	=31	=31	=31	=31	=31	=31	=31	=31
!LO:TX:t=P:problem:mixed beam	!	!	!	!	!	!	!	!	!	!	!	!	!
8D/L	.	8dd\L	8ff#\L	8D/	et	8A\	et	8f#\	et	8dd\	et	2ryy	2ryy
8G/	6 5	8dd\	8ee\	8G\	in	8B\	in	8e\	in	8dd\	in	.	.
!	!	!	!	!LO:TX:t=P:problem:mixed beam	!	!	!	!	!	!	!	!	!
8A/	#	8dd\	8.ee\	8A\L	ter-	4A\	ter-	4e\	ter-	8dd\L	ter-	.	.
8AA\J	.	8cc#X\J	.	8AA/J	.	.	.	.	.	8cc#X\J	.	.	.
.	.	.	16dd\Jk	.	.	.	.	.	.	.	.	.	.
!	!	!	!	!	!	!LO:LB:g=original	!	!	!	!	!	!	!
=32	=32	=32	=32	=32	=32	=32	=32	=32	=32	=32	=32	=32	=32
8D\L	.	4dd\	4dd\	4D\	-ra	4A\	-ra	4f#\	-ra	4dd\	-ra.	2ryy	2ryy
8E\	.	.	.	.	.	.	.	.	.	.	.	.	.
8F#\	.	4r	4r	4r	.	4r	.	8r	.	4r	.	.	.
8C#X\J	6	.	.	.	.	.	.	16a\	Sus-	.	.	.	.
.	.	.	.	.	.	.	.	16a\	-ci-	.	.	.	.
=33	=33	=33	=33	=33	=33	=33	=33	=33	=33	=33	=33	=33	=33
!LO:TX:a:t=Solo	!	!LO:N:vis=00	!LO:N:vis=00	!	!	!LO:N:vis=00	!	!	!	!LO:N:vis=00	!	!	!
4D\	.	0r	0r	4r	.	0r	.	8f#\	-tans	0r	.	2ryy	2ryy
.	.	.	.	.	.	.	.	8e\	a	.	.	.	.
8r	.	.	.	8r	.	.	.	8d\	ter-	.	.	.	.
8A\	#	.	.	16A\	et	.	.	8c#X\	-ra	.	.	.	.
.	.	.	.	16A\	de	.	.	.	.	.	.	.	.
=34	=34	=34	=34	=34	=34	=34	=34	=34	=34	=34	=34	=34	=34
8F#\L	6	.	.	8F#\	ster-	.	.	8d\	in-	.	.	2ryy	2ryy
8E\	.	.	.	16E\	-co-	.	.	16A/	-o-	.	.	.	.
.	.	.	.	16E\	-re	.	.	16A/	-pem	.	.	.	.
8D\	.	.	.	8D/	e-	.	.	8r	.	.	.	.	.
8C#X\J	6	.	.	16C#X/	-ri-	.	.	16a\	et	.	.	.	.
.	.	.	.	16C#/	-gens	.	.	16a\	de	.	.	.	.
!	!	!	!	!	!	!	!	!LO:LB:g=original	!	!	!	!	!
=35	=35	=35	=35	=35	=35	=35	=35	=35	=35	=35	=35	=35	=35
8D/L	.	.	.	8D/	pau-	.	.	8f#\	ster-	.	.	2ryy	2ryy
8AA/J	.	.	.	16AA/	-pe-	.	.	16e\	-co-	.	.	.	.
.	.	.	.	16AA/	-rem	.	.	16e\	-re	.	.	.	.
8r	.	.	.	8r	.	.	.	8d\	e-	.	.	.	.
8A\	#	.	.	8A\	ut	.	.	16c#X\	-ri-	.	.	.	.
.	.	.	.	.	.	.	.	16c#\	-gens	.	.	.	.
!LO:LB:g=original	!	!	!	!LO:LB:g=original	!	!	!	!	!	!	!	!	!
=36	=36	=36	=36	=36	=36	=36	=36	=36	=36	=36	=36	=36	=36
8F#\L	.	.	.	8F#\	col-	.	.	8d\	pau-	.	.	2ryy	2ryy
8E\	.	.	.	16E\	-lo-	.	.	16A/	-pe-	.	.	.	.
.	.	.	.	16E\	-cet	.	.	16A/	-rum	.	.	.	.
*	*	*	*	*	*ij	*	*	*	*	*	*	*	*
8D\	.	.	.	8D/	col-	.	.	8r	.	.	.	.	.
8C#X\J	6	.	.	16C#X/	-lo-	.	.	16a\	cum	.	.	.	.
.	.	.	.	16C#/	-cet	.	.	16a\	Prin-	.	.	.	.
*	*	*	*	*	*Xij	*	*	*	*	*	*	*	*
=37	=37	=37	=37	=37	=37	=37	=37	=37	=37	=37	=37	=37	=37
!	!	!LO:N:vis=0	!LO:N:vis=0	!	!	!LO:N:vis=0	!	!	!	!LO:N:vis=0	!	!	!
8D\L	.	1r	1r	8D\	e-	1r	.	8f#\	-ci-	1r	.	2ryy	2ryy
8E\	.	.	.	8E\	-um	.	.	16g\	-pi-	.	.	.	.
.	.	.	.	.	.	.	.	16g\	-bus	.	.	.	.
8F#\	.	.	.	8F#\	cum	.	.	8a\	po-	.	.	.	.
8G\J	.	.	.	8G\	Prin-	.	.	16b\	-pu-	.	.	.	.
.	.	.	.	.	.	.	.	16b\	-li	.	.	.	.
=38	=38	=38	=38	=38	=38	=38	=38	=38	=38	=38	=38	=38	=38
8A\L	#	.	.	8A\	-ci-	.	.	8e\	su-	.	.	2ryy	2ryy
8G\	2	.	.	16G\	-pi-	.	.	8e\	-i	.	.	.	.
.	.	.	.	16G\	-bus	.	.	.	.	.	.	.	.
8F#\	6	.	.	8F#\	po-	.	.	8f#\	po-	.	.	.	.
!	!	!	!	!	!	!	!	!LO:LB:g=original	!	!	!	!	!
8E\J	6\	.	.	16E\	-pu-	.	.	16g\	-pu-	.	.	.	.
.	.	.	.	16E\	-li	.	.	16g\	-li	.	.	.	.
=39	=39	=39	=39	=39	=39	=39	=39	=39	=39	=39	=39	=39	=39
!LO:TX:t=P:problem:mixed beam	!	!	!	!LO:TX:t=P:problem:mixed beam	!	!	!	!	!	!	!	!	!
8D\L	.	2r	2r	8D/L	su-	2r	.	8f#\L	su-	2r	.	2ryy	2ryy
8G\	.	.	.	8G/	.	.	.	8e\J	.	.	.	.	.
8A\	.	.	.	8A/	.	.	.	4e\	.	.	.	.	.
8AA\J	.	.	.	8AA\J	.	.	.	.	.	.	.	.	.
!	!	!	!	!	!	!	!	!	!	!LO:LB:g=original	!	!	!
=40	=40	=40	=40	=40	=40	=40	=40	=40	=40	=40	=40	=40	=40
4D\	.	16dd\LL	16dd/LL	4D/	-i	4r	.	4d\	-i	4r	.	2ryy	2ryy
.	.	16a\	16a/	.	.	.	.	.	.	.	.	.	.
.	.	16f#\	16f#/	.	.	.	.	.	.	.	.	.	.
.	.	16a\JJ	16a/JJ	.	.	.	.	.	.	.	.	.	.
8r	.	16d/LL	16d/LL	8r	.	8r	.	8r	.	8r	.	.	.
.	.	16f#/	16f#/	.	.	.	.	.	.	.	.	.	.
8D\	.	16a/	16a/	8D/	Qui	8d\	qui	8f#\	qui	8dd\	qui	.	.
.	.	16dd/JJ	16dd/JJ	.	.	.	.	.	.	.	.	.	.
!	!	!	!LO:LB:g=original	!LO:LB:g=original	!	!	!	!	!	!	!	!	!
=41	=41	=41	=41	=41	=41	=41	=41	=41	=41	=41	=41	=41	=41
!LO:TX:a:t=Tut	!	!	!	!	!	!	!	!	!	!	!	!	!
8G\L	.	16dd\LL	16b\LL	8G\	ha-	8B\	ha-	8g\	ha-	8dd\	ha-	2ryy	2ryy
.	.	16dd\	16bb\	.	.	.	.	.	.	.	.	.	.
8G\	.	16dd\	16bb\	8G\	-bi-	8B\	-bi-	8g\	-bi-	8dd\	-bi-	.	.
.	.	16dd\JJ	16bb\JJ	.	.	.	.	.	.	.	.	.	.
8G\	.	16dd\LL	16bb\LL	8G\	-ta-	8B\	-ta-	8g\	-ta-	8dd\	-ta-	.	.
.	.	16dd\	16bb\	.	.	.	.	.	.	.	.	.	.
8G\J	.	16dd\	16bb\	8G\	-re	8B\	-re	8g\	-re	8dd\	-re	.	.
.	.	16dd\JJ	16bb\JJ	.	.	.	.	.	.	.	.	.	.
=42	=42	=42	=42	=42	=42	=42	=42	=42	=42	=42	=42	=42	=42
8D\L	.	16dd\LL	16aa\LL	8D\	fa-	8A\	fa-	8f#\	fa-	8dd\	fe-	2ryy	2ryy
.	.	16dd\	16aa\	.	.	.	.	.	.	.	.	.	.
8E\	.	16dd\	16aa\	8E\	-cit	8A\	-cit	8g\	-cit	8dd\	-cit	.	.
.	.	16dd\JJ	16aa\JJ	.	.	.	.	.	.	.	.	.	.
!	!	!LO:TX:t=P:problem:mixed beam	!	!	!	!	!	!	!	!	!	!	!
8F#\	.	16d/LL	16aa\LL	8F#\	ste-	8A\	ste-	8a\	ste-	8dd\	ste-	.	.
.	.	16dd\	16aa\	.	.	.	.	.	.	.	.	.	.
8D\J	.	16dd\	16ff#\	8D/	-ri-	8A\	-ri-	8f#\	-ri-	8dd\	-ri-	.	.
.	.	16dd\JJ	16ff#\JJ	.	.	.	.	.	.	.	.	.	.
=43	=43	=43	=43	=43	=43	=43	=43	=43	=43	=43	=43	=43	=43
8G\L	.	16dd\LL	16bb\LL	8G\	-lem	8B\	-lem	8d\	-lem	8dd\	-lem	2ryy	2ryy
.	.	16dd\	16bb\	.	.	.	.	.	.	.	.	.	.
8G\	.	16dd\	16bb\	8G\	in	8B\	in	8g\	in	8dd\	in	.	.
.	.	16dd\JJ	16bb\JJ	.	.	.	.	.	.	.	.	.	.
!	!	!LO:LB:g=original	!	!	!	!	!	!	!	!	!	!	!
8G\	.	16dd\LL	16b\LL	8G\	Do-	8B\	Do-	8g\	Do-	8dd\	Do-	.	.
.	.	16dd\	16bb\	.	.	.	.	.	.	.	.	.	.
8G\J	.	16dd\	16bb\	8G\	-mo	8B\	-mo	8g\	-mo	8dd\	-mo	.	.
.	.	16dd\JJ	16bb\JJ	.	.	.	.	.	.	.	.	.	.
=44	=44	=44	=44	=44	=44	=44	=44	=44	=44	=44	=44	=44	=44
8D\L	.	16ff#\LL	16aa\LL	8D\	ma-	8A\	ma-	8f#\	mat-	8a\	mat-	2ryy	2ryy
.	.	16ff#\	16aa\	.	.	.	.	.	.	.	.	.	.
8E\	.	16ee\	16gg\	8E\	-tr(em)	8A\	-trem	8g\	-rem	8a\	-rem	.	.
.	.	16ee\JJ	16gg\JJ	.	.	.	.	.	.	.	.	.	.
8F#\	.	16dd\LL	16aa\LL	8F#\	Fi-	8A\	fi-	8a\	fi-	8dd\	fi-	.	.
.	.	16dd\	16aa\	.	.	.	.	.	.	.	.	.	.
8D\J	.	16a\	16ff#\	8D\	-li-	8d\	-li-	8f#\	-li-	8ccn\	-li-	.	.
.	.	16a\JJ	16ff#\JJ	.	.	.	.	.	.	.	.	.	.
!LO:PB:g=original	!	!	!	!	!	!LO:LB:g=original	!	!LO:LB:g=original	!	!	!	!	!
=45	=45	=45	=45	=45	=45	=45	=45	=45	=45	=45	=45	=45	=45
8G\L	.	16b\LL	16gg\LL	8G\L	-o-	8d\L	-o-	4g\	-o-	8b\L	-o-	2ryy	2ryy
.	.	16b\	16gg\	.	.	.	.	.	.	.	.	.	.
8A\	.	16b\	16gg\	8A\J	.	8c\J	.	.	.	8cc\J	.	.	.
.	.	16b\JJ	16gg\JJ	.	.	.	.	.	.	.	.	.	.
8B\	.	16b\LL	16gg\LL	8B\	-rum	8B\	-rum	8g\	-rum	8dd\	-rum	.	.
.	.	16dd\	16gg\	.	.	.	.	.	.	.	.	.	.
8G\J	.	16dd\	16bb\	8G#X\	lae-	8d\	lae-	8b\	lae-	8b\	lae-	.	.
.	.	16dd\JJ	16bb\JJ	.	.	.	.	.	.	.	.	.	.
!	!	!	!	!LO:LB:g=original	!	!	!	!	!	!	!	!	!
=46	=46	=46	=46	=46	=46	=46	=46	=46	=46	=46	=46	=46	=46
8c\L	7	8ee\L	16bb\LL	8cn\L	-tan-	4e\	-tan-	(4b\	-tan-	8ee\L	-ten-	2ryy	2ryy
.	.	.	16bb\	.	.	.	.	.	.	.	.	.	.
8B\	.	8dd\	16bb\	8B\	.	.	.	.	.	8dd\	.	.	.
.	.	.	16bb\JJ	.	.	.	.	.	.	.	.	.	.
!	!	!	!LO:LB:g=original	!	!	!	!	!	!	!	!	!	!
8c\	6	8ee\	16aa\LL	8c\	.	4c\	.	4a\)	.	8ee\	.	.	.
.	.	.	16aa\	.	.	.	.	.	.	.	.	.	.
8A\J	.	8ccn\J	16aa\	8A\J	.	.	.	.	.	8cc\J	.	.	.
.	.	.	16aa\JJ	.	.	.	.	.	.	.	.	.	.
!	!	!	!	!	!	!	!	!	!	!LO:LB:g=original	!	!	!
=47	=47	=47	=47	=47	=47	=47	=47	=47	=47	=47	=47	=47	=47
8B\L	7	8dd\L	16aa\LL	8B\L	.	4d\	.	4a\	.	4.dd\	.	2ryy	2ryy
.	.	.	16aa\	.	.	.	.	.	.	.	.	.	.
8A\	.	8cc\	16aa\	8A\	.	.	.	.	.	.	.	.	.
.	.	.	16aa\JJ	.	.	.	.	.	.	.	.	.	.
8B\	6	8dd\	16gg\LL	8B\	.	4G/	.	4g\	.	.	.	.	.
.	.	.	16gg\	.	.	.	.	.	.	.	.	.	.
8G\J	.	8b\J	16gg\	8G\J	.	.	.	.	.	8b\	.	.	.
.	.	.	16gg\JJ	.	.	.	.	.	.	.	.	.	.
=48	=48	=48	=48	=48	=48	=48	=48	=48	=48	=48	=48	=48	=48
*	*	*	*	*	*	*2\right	*	*	*	*	*	*	*
8A\L	.	8cc\L	16gg\LL	8A\L	.	2c\	.	4g\	.	8cc\L	.	2ryy	2ryy
.	.	.	16gg\	.	.	.	.	.	.	.	.	.	.
8G\	7	8b\	16gg\	8G\	.	.	.	.	.	8b\	.	.	.
.	.	.	16gg\JJ	.	.	.	.	.	.	.	.	.	.
8A\J	6	8cc\	16ff#\LL	8A\	.	.	.	4f#\	.	8cc\	.	.	.
.	.	.	16ff#\	.	.	.	.	.	.	.	.	.	.
!LO:TX:a:t=d	!	!	!	!	!	!	!	!	!	!	!	!	!
8F#\J	7	8a\J	16ff#\	8F#\J	.	.	.	.	.	8a\J	.	.	.
.	.	.	16ff#\JJ	.	.	.	.	.	.	.	.	.	.
=49	=49	=49	=49	=49	=49	=49	=49	=49	=49	=49	=49	=49	=49
*	*	*	*	*	*	*	*	*2\right	*	*	*	*	*
8G\L	.	8b\L	16gg\LL	8G\L	.	8B\L	.	2g\	.	8b\L	.	2ryy	2ryy
.	.	.	16gg\	.	.	.	.	.	.	.	.	.	.
8A\	.	8cc\	16gg\	8A\	.	8A\	.	.	.	8cc\	.	.	.
.	.	.	16gg\JJ	.	.	.	.	.	.	.	.	.	.
!	!	!	!LO:TX:t=P:problem:mixed beam	!	!	!	!	!	!	!	!	!	!
8B\	.	8dd\	16g/LL	8B\	.	8G\	.	.	.	8dd\	.	.	.
.	.	.	16gg\	.	.	.	.	.	.	.	.	.	.
8G\J	.	8b\J	16gg\	8G\J	.	8B\J	.	.	.	8b\J	.	.	.
.	.	.	16gg\JJ	.	.	.	.	.	.	.	.	.	.
!	!	!LO:LB:g=original	!	!	!	!	!	!	!	!	!	!	!
=50	=50	=50	=50	=50	=50	=50	=50	=50	=50	=50	=50	=50	=50
!	!	!	!	!LO:TX:t=P:problem:mixed beam	!	!	!	!	!	!	!	!	!
*	*	*	*	*	*	*	*	*	*	*2\right	*	*	*
8c\L	.	8a/L	8gg\L	8c\L	.	4e\	.	8g\L	.	2a\	.	2ryy	2ryy
8A\	.	8a/	8aa\	8A\	.	.	.	8a\J	.	.	.	.	.
8d\	.	8.a/	8.ff#\	8d\	.	4d\	.	4f#\	.	.	.	.	.
8D\J	.	.	.	8D/J	.	.	.	.	.	.	.	.	.
.	.	16a/Jk	16gg\Jk	.	.	.	.	.	.	.	.	.	.
=51	=51	=51	=51	=51	=51	=51	=51	=51	=51	=51	=51	=51	=51
!	!	!	!LO:TX:t=P:problem:mixed beam	!	!	!	!	!	!	!	!	!	!
4G\	.	16b/LL	16gg\LL	4G\	-tem	4d\	-tem	4g\	-tem	4b\	-tem	2ryy	2ryy
.	.	16g/	16g/	.	.	.	.	.	.	.	.	.	.
.	.	16b/	16b/	.	.	.	.	.	.	.	.	.	.
.	.	16dd/JJ	16dd/JJ	.	.	.	.	.	.	.	.	.	.
8r	.	16gg\LL	16gg\LL	8r	.	8r	.	8r	.	8r	.	.	.
.	.	16dd\	16ee\	.	.	.	.	.	.	.	.	.	.
8G\	.	16b\	16cc\	8G\	lae-	8d\	lae-	8g\	lae-	8dd\	lae-	.	.
.	.	16g\JJ	16ee\JJ	.	.	.	.	.	.	.	.	.	.
=52	=52	=52	=52	=52	=52	=52	=52	=52	=52	=52	=52	=52	=52
*2\right	*	*	*	*2\right	*	*	*	*	*	*	*	*	*
2c\	.	8g/L	8ee\L	2c\	-tan-	2c\	-tan-	2g\	-tan-	2ee\	-tan-	2ryy	2ryy
.	.	8g/	8ee\	.	.	.	.	.	.	.	.	.	.
.	.	8g/	8ee\	.	.	.	.	.	.	.	.	.	.
.	.	8g/J	8ee\J	.	.	.	.	.	.	.	.	.	.
=53	=53	=53	=53	=53	=53	=53	=53	=53	=53	=53	=53	=53	=53
!	!	!LO:TX:a:t=Verte Gloria	!	!	!	!	!	!	!	!	!	!	!
*	*	*	*2\right	*	*	*	*	*	*	*	*	*	*
2G\	.	2b\	2dd\	2G\	-tem.	2d\	-tem.	2g\	-tem.	2dd\	-tem	2ryy	2ryy
!LO:LB:g=original	!	!LO:PB:g=original	!LO:PB:g=original	!	!	!	!	!	!	!LO:LB:g=original	!	!	!
=54||	=54||	=54||	=54||	=54||	=54||	=54||	=54||	=54||	=54||	=54||	=54||	=54||	=54||
*M3/4	*	*M3/4	*M3/4	*M3/4	*	*M3/4	*	*M3/4	*	*M3/4	*	*M3/4	*M3/4
!LO:TX:b:t=Gloria	!	!LO:TX:b:t=Gloria	!	!	!	!	!	!	!	!	!	!	!
!LO:TX:a:t=adagi(o) solo	!	!LO:TX:a:t=Adagio	!LO:TX:a:t=Largo	!LO:TX:a:t=Gloria\nTacet	!	!LO:TX:a:t=Gloria\nTacet	!	!LO:TX:a:t=Gloria\nTacet	!	!	!	!	!
8E\L	.	8g/L	8ee\L	2.ryy	.	2.ryy	.	2.ryy	.	4g\	Glo-	2.ryy	2.ryy
8E\	.	8g/	8ee\	.	.	.	.	.	.	.	.	.	.
8E\	.	8g/	8ee\	.	.	.	.	.	.	4b\	-ri-	.	.
8E\	.	8g/	8ee\	.	.	.	.	.	.	.	.	.	.
8E\	.	8g/	8ee\	.	.	.	.	.	.	4ee\	-a	.	.
8E\J	.	8g/J	8ee\J	.	.	.	.	.	.	.	.	.	.
=55	=55	=55	=55	=55	=55	=55	=55	=55	=55	=55	=55	=55	=55
8B\L	.	8f#/L	8ee\L	2.ryy	.	2.ryy	.	2.ryy	.	8ee\L	Pa-	2.ryy	2.ryy
8B\	#	8f#/	8dd#X\	.	.	.	.	.	.	8dd#X\J	.	.	.
8B\	#	8f#/	8dd#\	.	.	.	.	.	.	4dd#\	-tri	.	.
8B\	.	8f#/	8ee\	.	.	.	.	.	.	.	.	.	.
8B\	.	8f#/	8ee\	.	.	.	.	.	.	4r	.	.	.
8B\J	.	8b/J	8ff#\J	.	.	.	.	.	.	.	.	.	.
=56	=56	=56	=56	=56	=56	=56	=56	=56	=56	=56	=56	=56	=56
8A\L	-	8cc\L	8ff#\L	2.ryy	.	2.ryy	.	2.ryy	.	4ccn\	glo-	2.ryy	2.ryy
8A\	6\	8cc\	8ff#\	.	.	.	.	.	.	.	.	.	.
8G\	7	8b\	8ff#\	.	.	.	.	.	.	4b\	-ri-	.	.
8G\	6	8b\	8ee\	.	.	.	.	.	.	.	.	.	.
8F#\	7	8a\	8ee\	.	.	.	.	.	.	4a\	-a	.	.
8F#\J	6	8a\J	8dd#X\J	.	.	.	.	.	.	.	.	.	.
=57	=57	=57	=57	=57	=57	=57	=57	=57	=57	=57	=57	=57	=57
8E\L	-	8g/L	8ee\L	2.ryy	.	2.ryy	.	2.ryy	.	8g\	Fi-	2.ryy	2.ryy
8E\	.	8g/	8b\	.	.	.	.	.	.	8g\	-li-	.	.
8E\	.	8g/	8b\	.	.	.	.	.	.	4g\	-o	.	.
8E\	.	8g/	8b\	.	.	.	.	.	.	.	.	.	.
8E\	.	8g/	8b\	.	.	.	.	.	.	4r	.	.	.
8E\J	.	8g/J	8b\J	.	.	.	.	.	.	.	.	.	.
=58	=58	=58	=58	=58	=58	=58	=58	=58	=58	=58	=58	=58	=58
8D\L	6 4 2	8g#X/L	8b\L	2.ryy	.	2.ryy	.	2.ryy	.	4r	.	2.ryy	2.ryy
8D\	.	8g#/	8ee\	.	.	.	.	.	.	.	.	.	.
8D\	.	8g#/	8ee\	.	.	.	.	.	.	4b\	et	.	.
8D\	.	8g#/	8ee\	.	.	.	.	.	.	.	.	.	.
8D\	.	8g#/	8ee\	.	.	.	.	.	.	4b\	Spi-	.	.
8D\J	.	8g#/J	8ee\J	.	.	.	.	.	.	.	.	.	.
=59	=59	=59	=59	=59	=59	=59	=59	=59	=59	=59	=59	=59	=59
8C/L	.	8a/L	8ee\L	2.ryy	.	2.ryy	.	2.ryy	.	4.ee\	-ri-	2.ryy	2.ryy
8C/	6	8a/	8ee\	.	.	.	.	.	.	.	.	.	.
8C/	.	8a/	8ee\	.	.	.	.	.	.	.	.	.	.
8C/	.	8a/	8ee\	.	.	.	.	.	.	8ee\	-tu-	.	.
8C/	.	8a/	8ee\	.	.	.	.	.	.	4ee\	-i	.	.
8C/J	.	8a/J	8ee\J	.	.	.	.	.	.	.	.	.	.
!	!	!LO:LB:g=original	!	!	!	!	!	!	!	!	!	!	!
=60	=60	=60	=60	=60	=60	=60	=60	=60	=60	=60	=60	=60	=60
8C#X/L	6\	8a#X/L	8ee\L	2.ryy	.	2.ryy	.	2.ryy	.	2.ee\	San-	2.ryy	2.ryy
8C#/	.	8a#/	8ee\	.	.	.	.	.	.	.	.	.	.
8C#/	.	8a#/	8ee\	.	.	.	.	.	.	.	.	.	.
8C#/J	.	8a#/	8ee\	.	.	.	.	.	.	.	.	.	.
!LO:LB:g=original	!	!	!	!	!	!	!	!	!	!	!	!	!
8F#\L	#	8a#/	8ee\	.	.	.	.	.	.	.	.	.	.
8F#\J	7	8a#/J	8ee\J	.	.	.	.	.	.	.	.	.	.
!	!	!	!LO:LB:g=original	!	!	!	!	!	!	!	!	!	!
=61	=61	=61	=61	=61	=61	=61	=61	=61	=61	=61	=61	=61	=61
!	!	!	!LO:SIC:v:s=2.dd#	!	!	!	!	!	!	!	!	!	!
2.BB/	.	2.b/	2.dd\	2.ryy	.	2.ryy	.	2.ryy	.	2.dd#X\	-cto	2.ryy	2.ryy
!	!	!	!	!LO:LB:g=original	!	!LO:PB:g=original	!	!LO:LB:g=original	!	!LO:LB:g=original	!	!	!
=62||	=62||	=62||	=62||	=62||	=62||	=62||	=62||	=62||	=62||	=62||	=62||	=62||	=62||
*M2/2	*	*M2/2	*M2/2	*M2/2	*	*M2/2	*	*M2/2	*	*M2/2	*	*M2/2	*M2/2
*met(c|)	*	*met(c|)	*met(2)	*met(c|)	*	*met(c|)	*	*met(c|)	*	*met(c|)	*	*met(c|)	*met(c|)
!LO:TX:b:t=Sicut erat	!	!LO:TX:b:t=Sicut erat	!LO:TX:a:t=Allabre	!	!	!	!	!	!	!	!	!	!
2D\	.	8dd\L	8dd\L	2r	.	2r	.	2r	.	2r	.	1ryy	1ryy
.	.	8a\	8a\	.	.	.	.	.	.	.	.	.	.
.	.	8f#\	8f#\	.	.	.	.	.	.	.	.	.	.
.	.	8a\J	8a\J	.	.	.	.	.	.	.	.	.	.
4r	.	8d/L	8d/L	4r	.	4r	.	4r	.	4r	.	.	.
.	.	8f#/	8f#/	.	.	.	.	.	.	.	.	.	.
8D\L	.	8a/	8a/	8D/	Si-	8d\	Si-	8f#\	Si-	8dd\	Si-	.	.
8D\J	.	8dd/J	8dd/J	8D/	-cut	8d\	-cut	8f#\	-cut	8dd\	-cut	.	.
=63	=63	=63	=63	=63	=63	=63	=63	=63	=63	=63	=63	=63	=63
4G\	.	8dd\L	8b\L	4G\	e-	4B\	e-	4g\	e-	4dd\	e-	1ryy	1ryy
.	.	8dd\	8bb\	.	.	.	.	.	.	.	.	.	.
4G\	.	8dd\	8bb\	4G\	-rat	4B\	-rat	4g\	-rat	4dd\	-rat	.	.
.	.	8dd\J	8bb\J	.	.	.	.	.	.	.	.	.	.
4G\	.	8dd\L	8bb\L	4G\	in	4B\	in	4g\	in	4dd\	in	.	.
.	.	8dd\	8bb\	.	.	.	.	.	.	.	.	.	.
4G\	.	8dd\	8bb\	4G\	prin-	4B\	prin-	4g\	prin-	4dd\	prin-	.	.
.	.	8dd\J	8bb\J	.	.	.	.	.	.	.	.	.	.
=64	=64	=64	=64	=64	=64	=64	=64	=64	=64	=64	=64	=64	=64
4D\	.	8dd\L	8aa\L	4D\	-ci-	4A\	-ci-	4f#\	-ci-	4dd\	-ci-	1ryy	1ryy
.	.	8dd\	8aa\	.	.	.	.	.	.	.	.	.	.
4E\	.	8dd\	8gg\	4E\	-pi-	4A\	-pi-	4g\	-pi-	4dd\	-pi-	.	.
.	.	8dd\J	8gg\J	.	.	.	.	.	.	.	.	.	.
!	!	!LO:TX:t=P:problem:mixed beam	!	!	!	!	!	!	!	!	!	!	!
4F#\	.	8d/L	8aa\L	4F#\	-o	4A\	-o	4a\	-o	4dd\	-o	.	.
.	.	8dd\	8aa\	.	.	.	.	.	.	.	.	.	.
4D\	.	8dd\	8ff#\	4D\	et	4A\	et	4f#\	.	4dd\	et	.	.
.	.	8dd\J	8ff#\J	.	.	.	.	.	.	.	.	.	.
=65	=65	=65	=65	=65	=65	=65	=65	=65	=65	=65	=65	=65	=65
4G\	.	8dd\L	8b\L	4G\	nunc	4B\	nunc	4d\	et	4dd\	nunc	1ryy	1ryy
.	.	8dd\	8bb\	.	.	.	.	.	.	.	.	.	.
4G\	.	8dd\	8bb\	4G\	et	4B\	et	4g\	nunc	4dd\	et	.	.
.	.	8dd\J	8bb\J	.	.	.	.	.	.	.	.	.	.
!	!	!LO:LB:g=original	!	!	!	!	!	!	!	!	!	!	!
!	!	!LO:TX:t=P:problem:mixed beam	!	!	!	!	!	!	!	!	!	!	!
4G\	.	8d/L	8bb\L	4G\	sem-	4B\	sem-	4g\	et	4dd\	sem-	.	.
.	.	8dd\	8bb\	.	.	.	.	.	.	.	.	.	.
4G\	.	8dd\	8bb\	4G\	-per	4B\	-per	4g\	sem-	4dd\	-per	.	.
.	.	8dd\J	8bb\J	.	.	.	.	.	.	.	.	.	.
!	!	!	!LO:LB:g=original	!	!	!	!	!	!	!	!	!	!
=66	=66	=66	=66	=66	=66	=66	=66	=66	=66	=66	=66	=66	=66
4D\	.	8ff#\L	8aa\L	4D\	et	4A\	et	4f#\	-per	4a\	et	1ryy	1ryy
.	.	8ff#\	8aa\	.	.	.	.	.	.	.	.	.	.
4E\	.	8ee\	8gg\	4E\	in	4A\	in	4g\	et	4a\	in	.	.
.	.	8ee\J	8gg\J	.	.	.	.	.	.	.	.	.	.
4F#\	.	8dd\L	8aa\L	4F#\	sae-	4A\	sae-	4a\	in	4dd\	sae-	.	.
.	.	8dd\	8aa\	.	.	.	.	.	.	.	.	.	.
4D\	.	8a\	8ff#\	8D/	-cu-	8A\	-cu-	8f#\	sae-	8cc\	-cu-	.	.
.	.	8a\J	8ff#\J	8D/	-la	8d\	-la	8f#\	-cu-	8cc\	-la	.	.
=67	=67	=67	=67	=67	=67	=67	=67	=67	=67	=67	=67	=67	=67
4G\	.	8b\L	8gg\L	4G\	sae-	4d\	sae-	4g\	-la	4b\	sae-	1ryy	1ryy
.	.	8b\	8gg\	.	.	.	.	.	.	.	.	.	.
4A\	.	8b\	8gg\	4A\	.	4c\	cu-	4g\	sae-	4cc\	.	.	.
.	.	8b\J	8gg\J	.	.	.	.	.	.	.	.	.	.
4B\	.	8b\L	8gg\L	4B\	-cu-	4B\	-lo-	4g\	-cu-	4dd\	-cu-	.	.
.	.	8dd\	8gg\	.	.	.	.	.	.	.	.	.	.
4G\	.	8ee\	8bb\	4G\	.	4d\	-rum	4b\	.	4b\	.	.	.
.	.	8ee\J	8bb\J	.	.	.	.	.	.	.	.	.	.
!LO:LB:g=original	!	!	!	!LO:LB:g=original	!	!LO:LB:g=original	!	!	!	!	!	!	!
=68	=68	=68	=68	=68	=68	=68	=68	=68	=68	=68	=68	=68	=68
4cn\	7	4ee\	8bb\L	4c\	-lo-	2e\	a-	2b\	-lo-	(4ee\	-lo-	1ryy	1ryy
.	.	.	8bb\	.	.	.	.	.	.	.	.	.	.
4B\	.	4dd\	8bb\	4B\	.	.	.	.	.	4dd\)	.	.	.
.	.	.	8bb\J	.	.	.	.	.	.	.	.	.	.
4c\	6	4ee\	8aa\L	4c\	-rum	2A\	-men	2a\	-rum	(4ee\	-rum	.	.
.	.	.	8aa\	.	.	.	.	.	.	.	.	.	.
4A\	.	4cc\	8aa\	4A\	.	.	.	.	.	4cc\)	.	.	.
.	.	.	8aa\J	.	.	.	.	.	.	.	.	.	.
!	!	!	!	!	!	!	!	!LO:LB:g=original	!	!LO:LB:g=original	!	!	!
=69	=69	=69	=69	=69	=69	=69	=69	=69	=69	=69	=69	=69	=69
4B\	7	4dd\	8aa\L	4B\	a-	2d\	a-	2a\	a-	2.ee\	a-	1ryy	1ryy
.	.	.	8aa\	.	.	.	.	.	.	.	.	.	.
4A\	.	4cc\	8aa\	4A\	.	.	.	.	.	.	.	.	.
.	.	.	8aa\J	.	.	.	.	.	.	.	.	.	.
4B\	6	4dd\	8gg\L	4B\	.	2G/	.	2g\	.	.	.	.	.
.	.	.	8gg\	.	.	.	.	.	.	.	.	.	.
4G\	.	4b\	8gg\	4G\	.	.	.	.	.	4b\	.	.	.
.	.	.	8gg\J	.	.	.	.	.	.	.	.	.	.
=70	=70	=70	=70	=70	=70	=70	=70	=70	=70	=70	=70	=70	=70
4A\	7	4cc\	8gg\L	4A\	.	1c	-men	2b\	.	4cc\	.	1ryy	1ryy
.	.	.	8gg\	.	.	.	.	.	.	.	.	.	.
4G\	.	4b\	8gg\	4G\	.	.	.	.	.	4b\	.	.	.
.	.	.	8gg\J	.	.	.	.	.	.	.	.	.	.
4A\	6	4cc\	8ff#\L	4A\	.	.	.	2a\	.	4cc\	.	.	.
.	.	.	8ff#\	.	.	.	.	.	.	.	.	.	.
4D\	7	4a/	8ff#\	4E\	.	.	.	.	.	4a\	.	.	.
.	.	.	8ff#\J	.	.	.	.	.	.	.	.	.	.
!	!	!	!LO:LB:g=original	!	!	!	!	!	!	!	!	!	!
=71	=71	=71	=71	=71	=71	=71	=71	=71	=71	=71	=71	=71	=71
4G\	.	4b\	8gg\L	4F#\	.	(4B\	a-	2a\	.	4b\	.	1ryy	1ryy
.	.	.	8gg\	.	.	.	.	.	.	.	.	.	.
4A\	.	4cc\	8gg\	4A\	.	4A\)	.	.	.	4cc\	.	.	.
.	.	.	8gg\J	.	.	.	.	.	.	.	.	.	.
!	!	!	!LO:TX:t=P:problem:mixed beam	!	!	!	!	!	!	!	!	!	!
4B\	.	4dd\	8g/L	4B\	.	(4G/	.	2g\	.	4dd\	.	.	.
.	.	.	8gg\	.	.	.	.	.	.	.	.	.	.
4G\	.	4b\	8gg\	4G\	.	4B\)	.	.	.	4b\	.	.	.
.	.	.	8gg\J	.	.	.	.	.	.	.	.	.	.
!	!	!LO:LB:g=original	!	!	!	!	!	!	!	!	!	!	!
=72	=72	=72	=72	=72	=72	=72	=72	=72	=72	=72	=72	=72	=72
4c\	.	4a/	4gg\	4c\	.	2e\	.	4g\	.	1a	.	1ryy	1ryy
4A\	.	4a/	4aa\	4A\	.	.	.	4a\	.	.	.	.	.
4d\	.	4.a/	4.ff#\	4d\	.	2d\	.	2f#\	.	.	.	.	.
4D/	.	.	.	4D/	.	.	.	.	.	.	.	.	.
.	.	8a/	8gg\	.	.	.	.	.	.	.	.	.	.
=73	=73	=73	=73	=73	=73	=73	=73	=73	=73	=73	=73	=73	=73
2G\	.	8b\L	8gg\L	2G\	-men	2d\	-men	2g\	-men	2b\	-men	1ryy	1ryy
.	.	8g\	8g\	.	.	.	.	.	.	.	.	.	.
.	.	8b\	8b\	.	.	.	.	.	.	.	.	.	.
.	.	8dd\J	8dd\J	.	.	.	.	.	.	.	.	.	.
4r	.	8gg\L	8gg\L	4r	.	4r	.	4r	.	4r	.	.	.
.	.	8dd\	8dd\	.	.	.	.	.	.	.	.	.	.
4G\	.	8b\	8b\	4G\	A-	4d\	a-	4g\	a-	4dd\	a-	.	.
.	.	8g\J	8dd\J	.	.	.	.	.	.	.	.	.	.
=74	=74	=74	=74	=74	=74	=74	=74	=74	=74	=74	=74	=74	=74
1c	.	4g/	4ee\	1c	.	1c	.	1g	.	1ee	.	1ryy	1ryy
.	.	4g/	4ee\	.	.	.	.	.	.	.	.	.	.
.	.	4g/	4ee\	.	.	.	.	.	.	.	.	.	.
.	.	4g/	4ee\	.	.	.	.	.	.	.	.	.	.
=75	=75	=75	=75	=75	=75	=75	=75	=75	=75	=75	=75	=75	=75
1G	.	1b	1dd	1G	-men.	1d	-men.	1g	-men.	1dd	-men.	1ryy	1ryy
==	==	==	==	==	==	==	==	==	==	==	==	==	==
*-	*-	*-	*-	*-	*-	*-	*-	*-	*-	*-	*-	*-	*-
!!!system-decoration: [(s1,s2)][(s3,s4,s5,s6)][(s7,s8)][(s9)]
!!!ENC: Andrzej Gręziak
!!!END: 2024-05-14
!!!ENC: Leszek Kubiak
!!!END: 2024-08-07
